X:1
T:Title
%%score { ( 1 4 ) | ( 2 3 ) }
L:1/8
M:6/8
K:G
V:1 treble nm="Grand Piano"
V:4 treble 
V:2 bass 
V:3 bass 
V:1
 z3 z2[Q:1/4=100] D | [DB]2 B B2 D | [DB]2 B B2 D | G2 B [^Ge]2 [Gd] | c3- c z D | %5
 [Fc]2 [Ac] [Fc]2 D | [Fc]2 [Ac] [Fc]2 D | F2 A [Fd]2 [Fc] | B3- B z B | [^DB]2 [DB] [DB]2 [B,DF] | %10
 G2 G G>FE | [CA]2 [CA] [CA]2 [A,CE] | F3- F z D | G2 G G2 G | G2 G G>FG | B2 B [DFB]2 [CFA] | %16
[M:5/8] [B,G]- [B,G]3 z |[M:1/8] [DGB] |[M:3/4] [E^Ge]2 B e2 d | [Ec]2 [Ec]c- c/B/[EA] | %20
 [Fd]2 [FA] [Fd]2 [Fc] | [GB]4 z [GB] | [EA]2 [EA] [Ee]2 [EA] | [DG]2 [DG] [Gd]2 G | %24
 F2 FF- F/G/[CFA] | [B,G]4 z [B,G] | A4 z2 |[M:7/8] z2 D [Gd]3 G |[M:3/4] F2 FF- F/G/[CDA] | %29
[M:5/8] [B,DG]- [B,DG]3 z |] %30
V:2
 z3 z2 D, | [G,,G,]2[K:treble] [G,B,G] [G,B,E]2[K:bass] [G,B,] | %2
 [G,,G,]2[K:treble] [G,B,G] [G,B,E]2 [G,B,] | [G,B,D]2 [G,DG][K:bass] [E,E]2 [E,E] | %4
 [A,EA]3- [A,EA] z[K:bass] D, | [D,A,]2 [D,D] [D,A,]2 [D,F,] | [D,A,]2 [D,D] [D,A,]2 [D,F,] | %7
 [D,A,D]2 [D,F,D] [D,A,]2 [D,D] | [G,DG]3- [G,DG] z[K:bass] [G,D] | [B,,F,]2 [B,,F,] z z/ A/B,, | %10
 z3 .B,3 | [A,,E,]2 [A,,E,] z z/ G/A,, | [D,A,C]3- [D,A,C] z [D,C] | %13
 [G,B,D]2 [G,B,D] [=F,B,D]2 [F,B,D] | [E,C]2 [E,G,C] [^D,G,^C]2 [D,G,C] | [D,G,D]2 [D,G,D] D,2 D, | %16
[M:5/8] G,,- G,,3 z |[M:1/8] G, |[M:3/4] E,2 [E,^G,E] [E,G,E]2 [E,G,E] | %19
 [A,,A,]2 [A,,A,][A,,A,]- [A,,A,]/[B,,^G,]/[C,A,] | [D,A,]2 [D,D] [D,D]2 [D,D] | [G,D]4 z [G,D] | %22
 [C,C]2 [C,C] [C,C]2 [C,C] | [D,B,]2 [D,B,] [D,B,]2 [D,B,D] | z2 z .A,3 | E,4 z E, | %26
 C,2 C, .[C,C]3 |[M:7/8] [D,B,D]2 [D,B,] [D,B,]3 [D,B,D] |[M:3/4] z2 z .A,3 |[M:5/8] G,,- G,,3 z |] %30
V:3
 x6 | x2[K:treble] x3[K:bass] x | x2[K:treble] x4 | x3[K:bass] x3 | x5[K:bass] x | x6 | x6 | x6 | %8
 x5[K:bass] x | z3 .[B,,F,]3 | [E,B,E]2 [E,B,E] [E,E]->[E,A,E][E,G,] | z3 .[A,,E,]3 | x6 | x6 | %14
 x6 | x6 |[M:5/8] x5 |[M:1/8] x |[M:3/4] x6 | x6 | x6 | x6 | x6 | x6 | %24
 [D,A,D]2 [D,A,D][D,D]- [D,D]/-[D,B,D]/D, | x6 | x6 |[M:7/8] x7 | %28
[M:3/4] [D,A,D]2 [D,A,D][D,D]- [D,D]/-[D,B,D]/D, |[M:5/8] x5 |] %30
V:4
 x6 | x6 | x6 | x6 | x6 | x6 | x6 | x6 | x6 | x6 | x6 | x6 | x6 | x6 | x6 | x6 |[M:5/8] x5 | %17
[M:1/8] x |[M:3/4] x6 | z2 z .E3 | x6 | x6 | x6 | x6 | x6 | x6 | [CE]2 [CE] [Ee]2 A | %27
[M:7/8] G3 z z z2 |[M:3/4] x6 |[M:5/8] x5 |] %30

